X:587
T: Arm an ellen (285), S. 599
N: T0475
O: Luxemburg
S: Singendes Volk, Esch-Alzette, 1937 posth.]
N: Junglinster, fff Josephine Welter, um 1896?
R: ???]
M: 2/4
L: 1/16
K: F
 | c2A2F2F2 | A2A2G4 |
B2B2G2GG | d2d2c4 |
c2A2F2F2 | A2A2G4 |
B2G2E2E2 | F2F2F4

@@@ Tune index: 8641
